X: 75
T:Missa L'homme arm\'e super voces musicales / Agnus Dei
N: Derived from Jos0603e-Missa_Lhomme_arme_super_voces_musicales-Agnus.krn
C: Josquin des Prez
%%abc-version 2.0
%%abcx-abcm2ps-target-version 5.9.1 (29 Sep 2008)
%%abc-creator hum2abc beta
%%abcx-conversion-date 2019/02/12 16:15:41
%%abc-edited-by Jesse Rodin
%%abc-edited-by Jesse Rodin; Victoria Chang 2011/05/16
%%abcx-initial-encoding-date 2011/05/16/
%%humdrum-veritas 1598798951
%%humdrum-veritas-data 3317360242
%%linebreak <none>
%%barnumbers 0
L: 1/4
M: 3/1
Q: 1/2=120
%%staves [1 2 3 4]
V: 1 clef=treble
V: 2 clef=treble-8
V: 3 clef=treble-8
V: 4 clef=bass
K: C
[V:1] A8c4 | 
[V:2] A12 | 
[V:3] z12 :
[V:4] z12 | 
[V:1] B2A4G2F4 | 
[V:2] d8d4 | 
[V:3] z12 :
[V:4] z12 | 
[V:1] E3FG2A4^G2 | 
[V:2] c4B8 | 
[V:3] z12 | 
[V:4] E,12 | 
[V:1] A4c6B2 | 
[V:2] A4z4e4 | 
[V:3] z12 :
[V:4] A,8A,4 | 
[V:1] B4A2c4BA | 
[V:2] e4A4z4 | 
[V:3] z12 :
[V:4] G,4F,8 | 
[V:1] G3AB2c4BA | 
[V:2] e8e4 | 
[V:3] z12 | 
[V:4] E,8z4 | 
[V:1] B2E2G3AB4 | 
[V:2] e3de2c2B4 | 
[V:3] G8G4 :
[V:4] E,8E,4 | 
[V:1] c3BA2G2A3G | 
[V:2] A3Bcde2A2c2- | 
[V:3] c12 :
[V:4] A,,2A,3G,E,2F,3E, | 
[V:1] E4F2G3FD2 | 
[V:2] cBAGF2E2G3F | 
[V:3] c4B8 | 
[V:4] C,4D,2E,3D,B,,2 | 
[V:1] E2F3EC2D4 | 
[V:2] E2D2F3EDCD2 | 
[V:3] A8G4 :
[V:4] C,2D,3C,A,,2B,,4 | 
[V:1] A3GF2E2D2C2 | 
[V:2] E2F3DE2F3E | 
[V:3] A12 :
[V:4] A,,2D,4C,2D,2A,,2 | 
[V:1] D2E3DB,2C2A,2 | 
[V:2] D2CDEFG3E^F2 | 
[V:3] G8z4 | 
[V:4] B,,2C,3B,,G,,2A,,4 | 
[V:1] B,3CDEF2G3F | 
[V:2] G3ABcd3_Bc2 | 
[V:3] d4d4G4 :
[V:4] G,,2G,3F,D,2_E,3D, | 
[V:1] F4z4G4 | 
[V:2] d4G2A2_B4 | 
[V:3] z4d8 :
[V:4] _B,,2_B,3A,F,2G,3F, | 
[V:1] A3GA2_B3AA2- | 
[V:2] A4D4z4 | 
[V:3] d4d6c2 | 
[V:4] D,4z2D3CA,2 | 
[V:1] A2G2A6G2 | 
[V:2] z4A4F2G2 | 
[V:3] d4c6B2 :
[V:4] _B,3A,F,2A,3G,E,2 | 
[V:1] F2E3DD4C2 | 
[V:2] D2E3FD2E4- | 
[V:3] A2G2A2G2A4 :
[V:4] F,2C,3D,B,,2A,,4 | 
[V:1] B,4z4E4 | 
[V:2] E4C2D2E2G2- | 
[V:3] G12 | 
[V:4] z2E,3D,B,,2C,3B,, | 
[V:1] D2F3EC2D4 | 
[V:2] GFDEFGA4G2 | 
[V:3] [M:6/1]z12 :
[V:4] G,,2D,3C,A,,2_B,,3A,, | 
[V:1] A3GFEE4D2 | 
[V:2] c3BA2G2F4 | 
[V:3] z12 | 
[V:4] F,,2F,3C,C,2D,3A,, | 
[V:1] A3GFEE4D2 | 
[V:2] c3BA2G2FGAB | 
[V:3] z12 :
[V:4] A,,2A,3G,E,2F,3E, | 
[V:1] G3FEDD4^C2 | 
[V:2] c2_B3AGFG4 | 
[V:3] g8g4 | 
[V:4] C,2G,3F,E,D,E,4 | 
[V:1] D4z2D3EFD | 
[V:2] A8d4 | 
[V:3] f8f4 :
[V:4] D,12 | 
[V:1] E2C3DEFG2C2 | 
[V:2] c6BAG2A2 | 
[V:3] g4e8 | 
[V:4] z12 | 
[V:1] F6EDA4 | 
[V:2] D3EFDd3cAd | 
[V:3] d12 :
[V:4] z4z2D,3E,F,D, | 
[V:1] z12 | 
[V:2] G2c3BGAB2c2- | 
[V:3] g8g4 | 
[V:4] E,2C,3D,E,F,G,2C,2 | 
[V:1] A6A6 | 
[V:2] cAA2z2d3efd | 
[V:3] f8f4 :
[V:4] F,6D,2D,4 | 
[V:1] G6G6 | 
[V:2] e2c3defg2c2 | 
[V:3] g4e8 | 
[V:4] z12 | 
[V:1] A6F6 | 
[V:2] f6d2d4 | 
[V:3] d12 :
[V:4] z4z2D,3E,F,D, | 
[V:1] E4z2E2D2E2 | 
[V:2] B2c3BGAB2c2- | 
[V:3] g12 | 
[V:4] E,2C,3D,E,F,G,2C,2 | 
[V:1] A,8z2F2 | 
[V:2] cBAGF4z2d2 | 
[V:3] a12 :
[V:4] F,4z2D,3E,F,D, | 
[V:1] G2E3DD4C2 | 
[V:2] B2c2A2B2G2A2 | 
[V:3] g4f4e4 | 
[V:4] E,2C,2D,2B,,2C,2A,,2 | 
[V:1] D2B,2A,4z2F2 | 
[V:2] F2G2D3EFGA2 | 
[V:3] d12 :
[V:4] B,,2G,,2z2D,3E,F,D, | 
[V:1] G2E3DD4^C2 | 
[V:2] G2A2F2D2E4 | 
[V:3] z12 | 
[V:4] E,2C,2D,2B,,2A,,4 | 
[V:1] D12 ||  
[V:2] D12 ||  
[V:3] z12 ||  
[V:4] D,12 ||  
[V:1]  [K:C] [K:clef=treble][M:2/1](3D4D4D4 | 
[V:2]  [K:C] [K:clef=treble-8][M:4/2]A8 :
[V:3]  [K:C] [K:clef=treble-8][M:2/1]z8 | 
[V:4]  [K:C] [K:clef=bass][M:2/1]D,4D,4 | 
[V:1] F4(3:2:1D2F2(3:2:1G | 
[V:2] A8 | 
[V:3] z8 | 
[V:4] D,4F,4- | 
[V:1] (3:2:2A8A4 | 
[V:2] A8 :
[V:3] z8 | 
[V:4] F,2D,2F,3G, | 
[V:1] A4(3:2:2G2F4 | 
[V:2] c8- | 
[V:3] z8 | 
[V:4] A,8 | 
[V:1] (3:2:1E4C4(3:2:1A,2 | 
[V:2] c4A4 :
[V:3] z8 | 
[V:4] A,4A,4- | 
[V:1] (3A,4z4A4 | 
[V:2] c6d2 | 
[V:3] z8 | 
[V:4] A,2G,2F,4 | 
[V:1] (3:2:1G4E4(3:2:1F2 | 
[V:2] e8- :
[V:3] z8 | 
[V:4] E,4C,4- | 
[V:1] (3:2:2G4C8 | 
[V:2] e8 | 
[V:3] z8 | 
[V:4] C,2A,,2A,,4 | 
[V:1] (3:2:1G4E4(3:2:1F2 | 
[V:2] e8 :
[V:3] z8 | 
[V:4] z4A,4 | 
[V:1] (3:2:2G8z4 | 
[V:2] e8- | 
[V:3] z8 | 
[V:4] G,4E,4- | 
[V:1] (3G4G4G4 | 
[V:2] e4d4 :
[V:3] z8 | 
[V:4] E,2F,2G,4 | 
[V:1] E4(3:2:2C2C4 | 
[V:2] c8 | 
[V:3] z8 | 
[V:4] C,8 | 
[V:1] (3z4G4G4 | 
[V:2] B8 :
[V:3] z8 | 
[V:4] G,4E,4- | 
[V:1] G4(3:2:2F2E4 | 
[V:2] G8- | 
[V:3] z8 | 
[V:4] E,2F,2G,4- | 
[V:1] (3:2:1D4G4(3:2:1A2 | 
[V:2] G4E4 :
[V:3] z8 | 
[V:4] G,4z4 | 
[V:1] B2(3:2:5AB2G4F E | 
[V:2] E8 | 
[V:3] z8 | 
[V:4] G,4G,4 | 
[V:1] (3:2:2D4G8 | 
[V:2] z8 :
[V:3] z8 | 
[V:4] G,4E,4- | 
[V:1] (3:2:2G4G8 | 
[V:2] e8 | 
[V:3] z8 | 
[V:4] E,2C,2C,4 | 
[V:1] (3F4D4G4 | 
[V:2] d8 :
[V:3] z8 | 
[V:4] z4G,4 | 
[V:1] (3D4G4D4 | 
[V:2] B8- | 
[V:3] z8 | 
[V:4] G,4G,4- | 
[V:1] (3G4z4G4 | 
[V:2] B4c4 :
[V:3] z8 | 
[V:4] G,2F,2E,4 | 
[V:1] (3F4D4G4 | 
[V:2] d8 | 
[V:3] z8 | 
[V:4] D,4G,4- | 
[V:1] (3D4G4D4 | 
[V:2] G8- :
[V:3] z8 | 
[V:4] G,2A,2B,3A, | 
[V:1] (3G4D4G4 | 
[V:2] G8 | 
[V:3] z8 | 
[V:4] B,2G,4F,E, | 
[V:1] F8 ||  
[V:2] d8 ||  
[V:3] z8 ||  
[V:4] D,8 ||  
[V:1]  [K:C] [K:clef=treble][M:9/0]A,8- :
[V:2]  [K:C] [K:clef=treble-8][M:2/1]z8 | 
[V:3]  [K:C] [K:clef=treble-8][M:2/1]z8 | 
[V:4]  [K:C] [K:clef=bass][M:2/1]A,,3B,,C,A,,D,2- | 
[V:1] A,8 :
[V:2] z4A3B | 
[V:3] z4z2F2- | 
[V:4] D,2^C,2D,4 | 
[V:1] A,8 :
[V:2] cAd4^c2 | 
[V:3] F2EDA4 | 
[V:4] z8 | 
[V:1] D8- :
[V:2] d4z4 | 
[V:3] z8 | 
[V:4] D,3E,F,D,G,2- | 
[V:1] D8- :
[V:2] z4d3e | 
[V:3] z4z2_B2- | 
[V:4] G,2^F,2G,4 | 
[V:1] D8 :
[V:2] fdg4^f2 | 
[V:3] B2AGd4 | 
[V:4] z4D,4 | 
[V:1] D8 :
[V:2] g2d3ef2- | 
[V:3] _B4d3c | 
[V:4] G,3F,D,3E, | 
[V:1] C8- :
[V:2] fec4BA | 
[V:3] A3=Bc3d | 
[V:4] F,3G,A,4 | 
[V:1] C8 | 
[V:2] c3de4- | 
[V:3] e4E4- | 
[V:4] z2A,,2C,3D, | 
[V:1] B,8- :
[V:2] e4z2e2 | 
[V:3] E2F2G4 | 
[V:4] E,8 | 
[V:1] B,8 :
[V:2] g3fd2e2 | 
[V:3] E4=B3c | 
[V:4] z2E,2G,3F, | 
[V:1] A,8 :
[V:2] f2e4d2 | 
[V:3] d2c4=BA | 
[V:4] D,3E,F,4 | 
[V:1] B,8- :
[V:2] e8 | 
[V:3] G8 | 
[V:4] E,8 | 
[V:1] B,8- :
[V:2] g6f2 | 
[V:3] E4G4- | 
[V:4] z4E,4 | 
[V:1] B,8 :
[V:2] d6e2 | 
[V:3] G2A2B3c | 
[V:4] G,6F,2 | 
[V:1] A,8- :
[V:2] f6e2 | 
[V:3] d3cA3B | 
[V:4] D,3E,F,3G, | 
[V:1] A,8- :
[V:2] c3dedf2- | 
[V:3] c8 | 
[V:4] A,3B,C2A,2- | 
[V:1] A,8 | 
[V:2] fed2c2d2 | 
[V:3] z4A4 | 
[V:4] A,G,F,E,F,4 | 
[V:1] E8 :
[V:2] G8 | 
[V:3] B3AB2c2- | 
[V:4] E,8 | 
[V:1] E8 :
[V:2] A4B2c2- | 
[V:3] c2BAG2A2- | 
[V:4] z8 | 
[V:1] A,8 :
[V:2] cBAGA2D2 | 
[V:3] AGFEF4 | 
[V:4] z4A,4 | 
[V:1] E8- :
[V:2] G4z4 | 
[V:3] E8 | 
[V:4] B,3A,B,2C2- | 
[V:1] E8- :
[V:2] A4B3A | 
[V:3] z8 | 
[V:4] C2B,A,G,3F, | 
[V:1] E8 :
[V:2] B2c4BA | 
[V:3] z4A4 | 
[V:4] G,2A,4G,F, | 
[V:1] E8 :
[V:2] G3FG2A2- | 
[V:3] B3AB2c2- | 
[V:4] E,6A,,2 | 
[V:1] E8- :
[V:2] A2GFE2c2- | 
[V:3] c2BAG2A2- | 
[V:4] A,,4z4 | 
[V:1] E4D4 | 
[V:2] cBAGA3B | 
[V:3] AGFEF4 | 
[V:4] z8 | 
[V:1] E8 :
[V:2] c4z2G2- | 
[V:3] E8 | 
[V:4] z2C,3D,E,F, | 
[V:1] D8- :
[V:2] GABcd4 | 
[V:3] z4z2D2- | 
[V:4] G,3F,D,4 | 
[V:1] D4C4 :
[V:2] z2A3Bcd | 
[V:3] DEFGA3G | 
[V:4] z4z2A,2 | 
[V:1] B,4A,4 :
[V:2] e4c3d | 
[V:3] E4z2A2 | 
[V:4] G,2E,2F,4 | 
[V:1] B,4A,4 :
[V:2] efe4d2 | 
[V:3] G2E2F4 | 
[V:4] E,4z4 | 
[V:1] B,8 :
[V:2] e8 | 
[V:3] E8 | 
[V:4] z4z2E,2 | 
[V:1] A,8- :
[V:2] z4z2e2 | 
[V:3] z8 | 
[V:4] F,2D,4C,2 | 
[V:1] A,8- :
[V:2] f2d4c2 | 
[V:3] z4z2e2 | 
[V:4] D,2F,4E,2 | 
[V:1] A,8 | 
[V:2] d2f4e2 | 
[V:3] f2d4c2 | 
[V:4] D,3C,A,,4 | 
[V:1] [M:6/0]A8- :
[V:2] d3cA2c2 | 
[V:3] d2f4e2 | 
[V:4] z8 | 
[V:1] A8 :
[V:2] d2f2e2f2- | 
[V:3] d3cA2d2- | 
[V:4] z4z2D,2- | 
[V:1] A8 :
[V:2] f4e2f2 | 
[V:3] dcd2c2d2 | 
[V:4] D,E,F,G,A,2F,2 | 
[V:1] G8- :
[V:2] d2e2z2e2- | 
[V:3] B3GG4 | 
[V:4] G,2E,2E,4 | 
[V:1] G8 :
[V:2] e4d2e2- | 
[V:3] z2c2B2c2- | 
[V:4] z4z2C,2- | 
[V:1] G8 | 
[V:2] e4d2e2 | 
[V:3] cBc2B2c2 | 
[V:4] C,D,E,F,G,2E,2 | 
[V:1] A8 :
[V:2] c2d2z2d2- | 
[V:3] A3FF4 | 
[V:4] F,2D,2D,4 | 
[V:1] F8- :
[V:2] d4c2d2- | 
[V:3] z2_B2A2_B2- | 
[V:4] z4z2_B,,2- | 
[V:1] F8 :
[V:2] d4c2d2 | 
[V:3] BA_B2A2_B2 | 
[V:4] B,,C,D,E,F,2D,2 | 
[V:1] E8- :
[V:2] B2c2z2c2- | 
[V:3] G3EE4 | 
[V:4] E,2C,2C,4 | 
[V:1] E8- :
[V:2] c4B2c2- | 
[V:3] z2A2G2A2- | 
[V:4] z4z2A,,2- | 
[V:1] E8 | 
[V:2] c4B2c2 | 
[V:3] AGA2G2A2 | 
[V:4] A,,B,,C,D,E,2C,2 | 
[V:1] A8- :
[V:2] A2f4ed | 
[V:3] F3DD4 | 
[V:4] D,8- | 
[V:1] A8 :
[V:2] f3ec4- | 
[V:3] A8 | 
[V:4] D,4z2A,2- | 
[V:1] A8 :
[V:2] c8 | 
[V:3] z2c4BA | 
[V:4] A,2G,F,A,3G, | 
[V:1] G8- :
[V:2] z2e4dc | 
[V:3] c2B2G4- | 
[V:4] E,8- | 
[V:1] G8 :
[V:2] e3dB4- | 
[V:3] G8 | 
[V:4] E,4z2G,2- | 
[V:1] G8 | 
[V:2] B8 | 
[V:3] z8 | 
[V:4] G,2F,E,G,3F, | 
[V:1] A8 :
[V:2] z4z2d2- | 
[V:3] z8 | 
[V:4] D,8- | 
[V:1] F8- :
[V:2] d2cBd3c | 
[V:3] z8 | 
[V:4] D,4z2F,2- | 
[V:1] F8 :
[V:2] A8 | 
[V:3] z2A4GF | 
[V:4] F,2E,D,F,3E, | 
[V:1] E8- :
[V:2] z2c4BA | 
[V:3] A2G2E4 | 
[V:4] C,8- | 
[V:1] E8- :
[V:2] c3BG2A2 | 
[V:3] z2c4BA | 
[V:4] C,8- | 
[V:1] E8 | 
[V:2] E2c3de2 | 
[V:3] c3BG4 | 
[V:4] C,8 | 
[V:1] A8- :
[V:2] A2f4ed | 
[V:3] F8- | 
[V:4] z8 | 
[V:1] A8- :
[V:2] f3ec2d2 | 
[V:3] F8 | 
[V:4] z2F,4E,D, | 
[V:1] A8 :
[V:2] A4e4 | 
[V:3] c8 | 
[V:4] F,3E,C,4 | 
[V:1] _B8- :
[V:2] f3edcd2- | 
[V:3] d4_B4- | 
[V:4] _B,,6G,,2 | 
[V:1] B8- :
[V:2] d2_B4AG | 
[V:3] B2G2G4 | 
[V:4] G,,8 | 
[V:1] B8 | 
[V:2] G4z4 | 
[V:3] z2G3FG2 | 
[V:4] z8 | 
[V:1] A8 :
[V:2] z8 | 
[V:3] AGFEF4 | 
[V:4] z2D,3C,D,2 | 
[V:1] G8 :
[V:2] z8 | 
[V:3] z8 | 
[V:4] E,D,C,B,,C,4 | 
[V:1] F8 :
[V:2] z2d3cd2 | 
[V:3] z8 | 
[V:4] z8 | 
[V:1] E8- :
[V:2] edcBc4 | 
[V:3] z4z2A2- | 
[V:4] z8 | 
[V:1] E8- :
[V:2] z8 | 
[V:3] AGA=Bc2A2- | 
[V:4] z4A,,4- | 
[V:1] E8 | 
[V:2] z4A4- | 
[V:3] A2GFE4 | 
[V:4] A,,2B,,2C,4 | 
[V:1] [M:9/0]A,8- :
[V:2] A2B2c4 | 
[V:3] F4E4 | 
[V:4] z4A,,4- | 
[V:1] A,8- :
[V:2] z4A4- | 
[V:3] F2D2E4 | 
[V:4] A,,2B,,2C,4 | 
[V:1] A,8 :
[V:2] A2B2c4 | 
[V:3] F6E2 | 
[V:4] D,4z4 | 
[V:1] A,8- :
[V:2] d4z4 | 
[V:3] D4C4 | 
[V:4] z4A,,4- | 
[V:1] A,8- :
[V:2] z4A4- | 
[V:3] F4E4 | 
[V:4] A,,2B,,2C,4 | 
[V:1] A,8 :
[V:2] A2B2c4 | 
[V:3] F2D2E4 | 
[V:4] D,4A,,4 | 
[V:1] A,8- :
[V:2] d4A4 | 
[V:3] D6E2 | 
[V:4] z4D,4- | 
[V:1] A,8- :
[V:2] z4d4- | 
[V:3] F4z4 | 
[V:4] D,2E,2F,4 | 
[V:1] A,8 | 
[V:2] d2e2f4 | 
[V:3] D6E2 | 
[V:4] z4D,4- | 
[V:1] D8- :
[V:2] z4d4- | 
[V:3] F4D2A2 | 
[V:4] D,2E,2F,4 | 
[V:1] D8- :
[V:2] d2e2f4 | 
[V:3] B2G2A4 | 
[V:4] G,4D,4 | 
[V:1] D8 :
[V:2] g4G3A | 
[V:3] G4z2G2- | 
[V:4] z2G,3A,B,2 | 
[V:1] D8 :
[V:2] Bcd2G2g2 | 
[V:3] GABcd2G2 | 
[V:4] z2G,3A,B,2 | 
[V:1] C8- :
[V:2] e2f2F3G | 
[V:3] A4z2F2- | 
[V:4] C2F,3G,A,2 | 
[V:1] C8 :
[V:2] ABc2F2f2 | 
[V:3] FGABc2F2 | 
[V:4] z2F,3G,A,2 | 
[V:1] B,8- :
[V:2] d2e2E3F | 
[V:3] G4z2E2- | 
[V:4] B,2E,3F,G,2 | 
[V:1] B,8- :
[V:2] G2z2E3F | 
[V:3] EFG2z2E2- | 
[V:4] z2E,3F,G,A, | 
[V:1] B,8 | 
[V:2] GAB2E2e2 | 
[V:3] EFGAB2E2 | 
[V:4] B,2E,3F,G,2 | 
[V:1] A,8- :
[V:2] c2d2D3E | 
[V:3] F4z2D2- | 
[V:4] A,2D,3E,F,2 | 
[V:1] A,8- :
[V:2] F2z2D3E | 
[V:3] DEF2z2D2- | 
[V:4] z2D,3E,F,G, | 
[V:1] A,8 :
[V:2] FGA2D2d2 | 
[V:3] DEFGA2D2 | 
[V:4] A,2D,3E,F,2 | 
[V:1] E8- :
[V:2] B2c2B2c2- | 
[V:3] E2A,2E2A,2 | 
[V:4] G,2A,2G,2A,2- | 
[V:1] E8- :
[V:2] c2BAB2c2- | 
[V:3] z2A2G2A2- | 
[V:4] A,2G,F,E,2A,,2 | 
[V:1] E8 :
[V:2] c2BAB2c2- | 
[V:3] A2GFE2A,2 | 
[V:4] z2A,2G,2A,2- | 
[V:1] E8- :
[V:2] c2BAB2c2- | 
[V:3] z2A2G2A2- | 
[V:4] A,2G,F,E,2A,,2 | 
[V:1] E8- :
[V:2] c2BAB2c2- | 
[V:3] A2GFE2A,2 | 
[V:4] z2A,2G,2A,2- | 
[V:1] E8 | 
[V:2] c2BAB2c2 | 
[V:3] z2A2G2A2- | 
[V:4] A,2G,F,E,2A,,2 | 
[V:1] A,8- :
[V:2] F2f3ed2- | 
[V:3] AGFED2F2 | 
[V:4] D,8 | 
[V:1] A,8- :
[V:2] d2c2d2f2 | 
[V:3] E4D4 | 
[V:4] A,,4z2D,2- | 
[V:1] A,8 :
[V:2] e4z4 | 
[V:3] z4z2A2- | 
[V:4] D,2C,2D,2F,2 | 
[V:1] E8- :
[V:2] z4z2A2- | 
[V:3] A2G2A2c2- | 
[V:4] E,4A,,4 | 
[V:1] E8- :
[V:2] A2G2A4 | 
[V:3] c2B2c2A2- | 
[V:4] z4z2C2- | 
[V:1] E8 :
[V:2] E4z2c2- | 
[V:3] A2G2A4 | 
[V:4] C2B,2C2A,2- | 
[V:1] E8- :
[V:2] c2B2c2A2- | 
[V:3] E4z2c2- | 
[V:4] A,2G,2A,4 | 
[V:1] E8- :
[V:2] A2G2A4 | 
[V:3] c2B2c2A2- | 
[V:4] E,4z2C2- | 
[V:1] E8 | 
[V:2] E4z2c2- | 
[V:3] A2G2A4 | 
[V:4] C2B,2C2A,2- | 
[V:1] E8- :
[V:2] c2B2c2A2- | 
[V:3] E4z2c2- | 
[V:4] A,2G,2A,4 | 
[V:1] E8- :
[V:2] A2G2A2c2- | 
[V:3] c2B2c2A2 | 
[V:4] E,4z2A,2- | 
[V:1] E8 :
[V:2] c2B2c2A2 | 
[V:3] E4z4 | 
[V:4] A,2G,2A,2C2 | 
[V:1] D8- :
[V:2] z2B2A2B2- | 
[V:3] G4F2G2 | 
[V:4] B,2G,2z2G,2- | 
[V:1] D8- :
[V:2] BGA2B4 | 
[V:3] D4z2G2- | 
[V:4] G,2F,2G,4 | 
[V:1] D8 :
[V:2] A4z2B2- | 
[V:3] G2F2G4 | 
[V:4] D,4z2G,2- | 
[V:1] D8 :
[V:2] B2A2B2G2 | 
[V:3] D4z4 | 
[V:4] G,2F,2G,2_B,2 | 
[V:1] C8- :
[V:2] A4G2A2- | 
[V:3] F4E2F2 | 
[V:4] A,2F,2z2F,2- | 
[V:1] C8 | 
[V:2] AFG2A2F2 | 
[V:3] C4z4 | 
[V:4] F,2E,2F,2A,2 | 
[V:1] B,8- :
[V:2] G2E2z2e2 | 
[V:3] E4G4 | 
[V:4] G,3E,E,4 | 
[V:1] B,8- :
[V:2] g4z2e2 | 
[V:3] E2G2E2G2- | 
[V:4] z2E,2G,4 | 
[V:1] B,8 :
[V:2] g3fd4 | 
[V:3] GAB3cd2- | 
[V:4] z2E,2G,3F, | 
[V:1] A,8- :
[V:2] z2d2f3e | 
[V:3] d2D3EFG | 
[V:4] D,4z2D,2 | 
[V:1] A,8- :
[V:2] c2d2A2f2 | 
[V:3] A2F2D2A2- | 
[V:4] F,2D,2F,3E, | 
[V:1] A,8- :
[V:2] edd4^c2 | 
[V:3] A2F2E4 | 
[V:4] C,2D,2A,,4 | 
[V:1] A,8 |]  
[V:2] d8 |]  
[V:3] D8 |]  
[V:4] D,8 |]  



